X: 14264
T: Gabe Arsenault
R: reel
M: 4/4
K: Eminor
F|EB B2 edBe|dBAG FDDF|EB B2 edBe|dBAF E3 F|
EB B2 edBe|dBAG FD D2|BG G2 AFAd|BGAF E3 c||
BGG2 Bdeg|ADD2 FGAc|BGG2 Bdeg|fde^c d3 =c|
BGG2 Bdeg|ADD2 FGAc|BGG2 AFAd|BGAF E3||

